X:68
T:Lady Spellor
M:6/4
L:1/4
K:GMix
d2 d d2 d | d3 B3 | c2 B c2 d | e3 B3 | A2 A A2 B | c2 d e2 c | d2 c B2 A | B3 G3 ||
d2 d d2 d | d3 B3 | c2 B c2 d | e3 B3 | A2 A A2 B | c2 D e2 f | g d2 e d2 | B3 G3 ||
%
